X:1
T:Have Yourself A Merry Little Christmas
C:Martin & Blane
L:1/8
M:C
I:linebreak $
K:G
"G" G2 B2"Em" d2 g2 |"Am" dcBA"D7" G2 A2 |"G" z2 GB"Em" d2 g2 |"Am" d8 "D7" x4|
"G" B2 d2"Em" g2 b2 ||1$"Am" agfe"D7" d2 c2 |"B7" B8 "E7" x4|"A7" z8 "D7" x4:|2"F#ø" agfe"B7" ^d2 f2 |
"Em" g8 |$"Dm" z8 "G7" x4|"C" bb b2"Co" z2 ag |"Bm" fg a2"Em" z2 gf |"Am" ef g2"D7" z2 f2 |
"G" d8 |$"C#ø" gg g2"F#7" z2 fe |"Bm" de f2"E7" z2 de |"Em" fg a2"A7" z2 A2 |
"Am" d8"D7" "_D.C. al 3rd end." x4 ||3$"F#ø" c'bag"B7" f2 a2 |"Em" b8 |"Dm" z8 "G7" x4||
"C" b2 c2 e2 g2 |"Am" bagf"D7" e2 f2 |"G" g8 | z8 |]

